static/logos/deel-glyph-color.svg

<svg width="100" height="35" viewBox="0 0 100 35" fill="none" xmlns="http://www.w3.org/2000/svg">
<g clip-path="url(#clip0_1_3103)">
<path d="M81.3499 34.1061C81.2041 34.1061 81.0859 33.9878 81.0859 33.8421V2.04423C81.0859 1.91904 81.1739 1.81108 81.2964 1.78573L86.85 0.63752C87.0138 0.603653 87.1674 0.728742 87.1674 0.89601V33.8421C87.1674 33.9878 87.0493 34.1061 86.9035 34.1061H81.3499Z" fill="#1C4396"/>
<path d="M11.5929 34.7787C9.37564 34.7787 7.39599 34.2403 5.65388 33.1634C3.9118 32.0864 2.53396 30.6135 1.52038 28.7447C0.506791 26.876 0 24.7538 0 22.3781C0 20.0026 0.506791 17.8963 1.52038 16.0592C2.53396 14.1903 3.9118 12.7332 5.65388 11.688C7.39599 10.6111 9.37564 10.0726 11.5929 10.0726C13.3666 10.0726 14.9187 10.4052 16.249 11.0703C17.3175 11.6046 18.2226 12.3125 18.9641 13.1942C19.1312 13.3928 19.4799 13.2798 19.4799 13.0203V1.47244C19.4799 1.34726 19.5677 1.2393 19.6903 1.21396L25.2439 0.0657425C25.4077 0.0318759 25.5613 0.156965 25.5613 0.324233V33.9447C25.5613 34.0905 25.443 34.2086 25.2974 34.2086H20.3619C20.2358 34.2086 20.1274 34.1195 20.1029 33.9957L19.5967 31.4283C19.5522 31.2022 19.2558 31.135 19.1083 31.3119C18.3996 32.1621 17.5097 32.9218 16.439 33.5909C15.2038 34.3828 13.5883 34.7787 11.5929 34.7787ZM12.8757 29.4574C14.8394 29.4574 16.439 28.8081 17.6743 27.5095C18.9413 26.1792 19.5748 24.4845 19.5748 22.4257C19.5748 20.3668 18.9413 18.6881 17.6743 17.3895C16.439 16.0592 14.8394 15.3939 12.8757 15.3939C10.9435 15.3939 9.34396 16.0432 8.07699 17.3419C6.81 18.6406 6.17652 20.3193 6.17652 22.3781C6.17652 24.437 6.81 26.1316 8.07699 27.4619C9.34396 28.7922 10.9435 29.4574 12.8757 29.4574Z" fill="#1C4396"/>
<path d="M40.3901 34.7823C38.0146 34.7823 35.9082 34.2755 34.0711 33.262C32.234 32.2484 30.7929 30.823 29.7475 28.9859C28.7023 27.1488 28.1797 25.0267 28.1797 22.6194C28.1797 20.1804 28.6865 18.0107 29.7 16.1103C30.7453 14.2098 32.1707 12.7369 33.9761 11.6917C35.8132 10.6148 37.9671 10.0763 40.4377 10.0763C42.75 10.0763 44.7929 10.5831 46.5666 11.5967C48.3404 12.6103 49.7182 14.0039 50.7003 15.7777C51.7137 17.5197 52.2206 19.4678 52.2206 21.6216C52.2206 21.97 52.2048 22.3344 52.173 22.7144C52.173 23.0188 52.1629 23.3335 52.1426 23.6584C52.134 23.7959 52.0191 23.9022 51.8811 23.9022H34.4965C34.3435 23.9022 34.2222 24.032 34.2374 24.1842C34.4072 25.8874 35.0329 27.2346 36.1142 28.2258C37.2861 29.271 38.6956 29.7936 40.3427 29.7936C41.5779 29.7936 42.6074 29.5244 43.431 28.9859C44.2369 28.4487 44.8459 27.7707 45.2581 26.952C45.3042 26.8603 45.3971 26.8004 45.4998 26.8004H51.1539C51.3304 26.8004 51.4572 26.9704 51.4014 27.1381C50.9494 28.4957 50.2406 29.7451 49.2749 30.8864C48.2613 32.09 46.9943 33.0403 45.4739 33.7371C43.9852 34.4339 42.2907 34.7823 40.3901 34.7823ZM40.4377 15.0175C38.949 15.0175 37.6345 15.4451 36.4942 16.3003C35.4242 17.0732 34.7168 18.2364 34.3719 19.7903C34.3361 19.9515 34.461 20.1013 34.6261 20.1013H45.7635C45.9156 20.1013 46.0368 19.9729 46.0214 19.8216C45.8779 18.4001 45.3153 17.258 44.3336 16.3954C43.2884 15.4768 41.9897 15.0175 40.4377 15.0175Z" fill="#1C4396"/>
<path d="M66.8434 34.7823C64.4677 34.7823 62.3614 34.2755 60.5243 33.262C58.6872 32.2484 57.246 30.823 56.2008 28.9859C55.1554 27.1488 54.6328 25.0267 54.6328 22.6194C54.6328 20.1804 55.1396 18.0107 56.1532 16.1103C57.1985 14.2098 58.6238 12.7369 60.4293 11.6917C62.2664 10.6148 64.4202 10.0763 66.8909 10.0763C69.2031 10.0763 71.2461 10.5831 73.0199 11.5967C74.7937 12.6103 76.1715 14.0039 77.1534 15.7777C78.167 17.5197 78.6738 19.4678 78.6738 21.6216C78.6738 21.97 78.6579 22.3344 78.6263 22.7144C78.6263 23.0188 78.6161 23.3335 78.5957 23.6584C78.5872 23.7959 78.4722 23.9022 78.3343 23.9022H60.9496C60.7967 23.9022 60.6754 24.032 60.6906 24.1842C60.8605 25.8874 61.486 27.2346 62.5673 28.2258C63.7393 29.271 65.1488 29.7936 66.7959 29.7936C68.0312 29.7936 69.0606 29.5244 69.8841 28.9859C70.6901 28.4487 71.299 27.7707 71.7112 26.952C71.7574 26.8603 71.8503 26.8004 71.9531 26.8004H77.607C77.7837 26.8004 77.9103 26.9704 77.8545 27.1381C77.4027 28.4957 76.6937 29.7451 75.728 30.8864C74.7144 32.09 73.4475 33.0403 71.9272 33.7371C70.4385 34.4339 68.7438 34.7823 66.8434 34.7823ZM66.8909 15.0175C65.4022 15.0175 64.0877 15.4451 62.9474 16.3003C61.8773 17.0732 61.1699 18.2364 60.8251 19.7903C60.7893 19.9515 60.9141 20.1013 61.0792 20.1013H72.2166C72.3688 20.1013 72.4899 19.9729 72.4747 19.8216C72.3311 18.4001 71.7685 17.258 70.7869 16.3954C69.7415 15.4768 68.443 15.0175 66.8909 15.0175Z" fill="#1C4396"/>
<path d="M95.1412 34.1129C97.4024 34.1129 99.2356 32.2798 99.2356 30.0185C99.2356 27.7572 97.4024 25.9242 95.1412 25.9242C92.8799 25.9242 91.0469 27.7572 91.0469 30.0185C91.0469 32.2798 92.8799 34.1129 95.1412 34.1129Z" fill="#2C71F0"/>
</g>
<defs>
<clipPath id="clip0_1_3103">
<rect width="100" height="34.7826" fill="white"/>
</clipPath>
</defs>
</svg>

<svg xmlns="http://www.w3.org/2000/svg" width="182.857" height="64" fill="none" viewBox="0 0 100 35"><g clip-path="url(#a)"><path fill="#1C4396" d="M81.35 34.106a.264.264 0 0 1-.264-.264V2.044c0-.125.088-.233.21-.258L86.85.638a.264.264 0 0 1 .317.258v32.946a.264.264 0 0 1-.264.264H81.35ZM11.593 34.779c-2.217 0-4.197-.539-5.94-1.616-1.741-1.077-3.119-2.55-4.133-4.418C.507 26.876 0 24.754 0 22.378c0-2.375.507-4.482 1.52-6.319 1.014-1.869 2.392-3.326 4.134-4.371 1.742-1.077 3.722-1.615 5.939-1.615 1.774 0 3.326.332 4.656.997a8.425 8.425 0 0 1 2.715 2.124c.167.199.516.086.516-.174V1.472c0-.125.088-.233.21-.258L25.244.066a.264.264 0 0 1 .317.258v33.62a.264.264 0 0 1-.264.265h-4.935a.264.264 0 0 1-.26-.213l-.505-2.568c-.045-.226-.341-.293-.489-.116-.708.85-1.598 1.61-2.669 2.279-1.235.792-2.85 1.188-4.846 1.188Zm1.283-5.322c1.963 0 3.563-.649 4.798-1.948 1.267-1.33 1.9-3.024 1.9-5.083 0-2.06-.633-3.738-1.9-5.036-1.235-1.33-2.835-1.996-4.798-1.996-1.932 0-3.532.65-4.799 1.948-1.267 1.299-1.9 2.977-1.9 5.036 0 2.059.633 3.754 1.9 5.084 1.267 1.33 2.867 1.995 4.799 1.995ZM40.39 34.782c-2.375 0-4.482-.506-6.319-1.52a11.005 11.005 0 0 1-4.323-4.276c-1.046-1.837-1.568-3.96-1.568-6.367 0-2.439.506-4.608 1.52-6.509 1.045-1.9 2.47-3.373 4.276-4.418 1.837-1.077 3.991-1.616 6.462-1.616 2.312 0 4.355.507 6.129 1.52a10.705 10.705 0 0 1 4.133 4.182c1.014 1.742 1.52 3.69 1.52 5.844 0 .348-.015.712-.047 1.092 0 .305-.01.62-.03.944a.261.261 0 0 1-.262.244H34.496a.258.258 0 0 0-.259.282c.17 1.703.796 3.05 1.877 4.042 1.172 1.045 2.582 1.568 4.229 1.568 1.235 0 2.264-.27 3.088-.808.806-.537 1.415-1.215 1.827-2.034a.272.272 0 0 1 .242-.152h5.654c.176 0 .303.17.247.338a11.286 11.286 0 0 1-2.126 3.748c-1.014 1.204-2.28 2.154-3.801 2.851-1.489.697-3.183 1.045-5.084 1.045Zm.048-19.764c-1.489 0-2.803.427-3.944 1.282-1.07.773-1.777 1.936-2.122 3.49a.257.257 0 0 0 .254.311h11.138a.256.256 0 0 0 .257-.28c-.143-1.42-.706-2.563-1.687-3.426-1.046-.918-2.344-1.377-3.896-1.377ZM66.843 34.782c-2.375 0-4.482-.506-6.319-1.52a11.004 11.004 0 0 1-4.323-4.276c-1.046-1.837-1.568-3.96-1.568-6.367 0-2.439.507-4.608 1.52-6.509 1.046-1.9 2.47-3.373 4.276-4.418 1.837-1.077 3.991-1.616 6.462-1.616 2.312 0 4.355.507 6.129 1.52a10.703 10.703 0 0 1 4.133 4.182c1.014 1.742 1.52 3.69 1.52 5.844 0 .348-.015.712-.047 1.092 0 .305-.01.62-.03.944a.261.261 0 0 1-.262.244H60.95a.258.258 0 0 0-.26.282c.17 1.703.796 3.05 1.877 4.042 1.172 1.045 2.582 1.568 4.229 1.568 1.235 0 2.265-.27 3.088-.808.806-.537 1.415-1.215 1.827-2.034a.272.272 0 0 1 .242-.152h5.654c.177 0 .303.17.248.338a11.283 11.283 0 0 1-2.127 3.748c-1.014 1.204-2.28 2.154-3.8 2.851-1.49.697-3.184 1.045-5.085 1.045Zm.048-19.764c-1.489 0-2.803.427-3.944 1.282-1.07.773-1.777 1.936-2.122 3.49a.257.257 0 0 0 .254.311h11.138a.256.256 0 0 0 .258-.28c-.144-1.42-.706-2.563-1.688-3.426-1.046-.918-2.344-1.377-3.896-1.377Z"/><path fill="#2C71F0" d="M95.141 34.113a4.094 4.094 0 1 0 0-8.189 4.094 4.094 0 0 0 0 8.189Z"/></g><defs><clipPath id="a"><path fill="#fff" d="M0 0h100v34.783H0z"/></clipPath></defs></svg>
